X:1
T: The Beau's Retreat
N:
C:
S:
A:
O:
R:
M:3/2
K:Am
I:speed 250
%W: A1
% voice 1 (1 lines, 42 notes)
K:Am
M:3/2
L:1/16
A8 |E4 c4 |B4 A4 |G4 E8 |D4 C4 |B,4 A,4 |A8 |B4 c4 |d4 e4 |A4 c4 |B2 A2 ^G4 |E4 A8 |E4 c4 |B4 A4 |G4 E8 |D4 C4 |B,4 C4 |E4 D4 |F4 E4 |e4 ^G4 |E8 |G4 A8 |
%W: A2
% voice 1 (1 lines, 42 notes)
A8 |E4 c4 |B4 A4 |G4 E8 |D4 C4 |B,4 A,4 |A8 |B4 c4 |d4 e4 |A4 c4 |B2 A2 ^G4 |E4 A8 |E4 c4 |B4 A4 |G4 E8 |D4 C4 |B,4 C4 |E4 D4 |F4 E4 |e4 ^G4 |E8 |G4 A8 |
%W: B1
% voice 1 (1 lines, 44 notes)
e8 |c4 g4 |f4 e4 |d4 B4 |c4 B2 |A2 G4 |E4 A4 |G4 A4 |B4 c4 |d4 e4 |d2 c2 B2 |c2 d2 B2 |c8 |e8 |c8 |f8 |e8 |a8 |^g8 |e8 |A4 B2 |c2 d2 c2 |B2 A2 ^G4 |E8 |G4 A8 |
%W: B2
% voice 1 (1 lines, 44 notes)
e8 |c4 g4 |f4 e4 |d4 B4 |c4 B2 |A2 G4 |E4 A4 |G4 A4 |B4 c4 |d4 e4 |d2 c2 B2 |c2 d2 B2 |c8 |e8 |c8 |f8 |e8 |a8 |^g8 |e8 |A4 B2 |c2 d2 c2 |B2 A2 ^G4 |E8 |G4 A8 ||
